assets/images/vector/icons/cart_shopping_icon.svg

<svg fill="none" height="56" viewBox="0 0 56 56" width="56" xmlns="http://www.w3.org/2000/svg"><path d="m5.00195 5.00122 4.50334 1.12667c1.31001.32666 2.29331 1.41333 2.49001 2.75l3.8433 26.12671" stroke="#111" stroke-linecap="round" stroke-linejoin="round" stroke-width="10"/><path d="m50.0019 43.3346h-35.8333c-2.3 0-4.1666-1.8667-4.1666-4.1667s1.8666-4.1667 4.1666-4.1667h28.43c1.4334 0 2.71-.9166 3.1633-2.28l4.4434-13.3333c.72-2.16-.8867-4.3867-3.1633-4.3867h-34.1467" stroke="#111" stroke-linecap="round" stroke-linejoin="round" stroke-width="10"/><g fill="#111"><path d="m11.6686 55.8346c2.3012 0 4.1667-1.8655 4.1667-4.1667s-1.8655-4.1667-4.1667-4.1667c-2.30117 0-4.16665 1.8655-4.16665 4.1667s1.86548 4.1667 4.16665 4.1667z"/><path d="m46.6686 55.8346c2.3012 0 4.1667-1.8655 4.1667-4.1667s-1.8655-4.1667-4.1667-4.1667-4.1666 1.8655-4.1666 4.1667 1.8654 4.1667 4.1666 4.1667z"/></g></svg>

<svg width="56" height="56" viewBox="0 0 56 56" fill="none" xmlns="http://www.w3.org/2000/svg">
<path d="M5.00195 5.00122L9.50529 6.12789C10.8153 6.45455 11.7986 7.54122 11.9953 8.87789L15.8386 35.0046" stroke="#111111" stroke-width="10" stroke-linecap="round" stroke-linejoin="round"/>
<path d="M50.0019 43.3346H14.1686C11.8686 43.3346 10.002 41.4679 10.002 39.1679C10.002 36.8679 11.8686 35.0012 14.1686 35.0012H42.5986C44.032 35.0012 45.3086 34.0846 45.7619 32.7212L50.2053 19.3879C50.9253 17.2279 49.3186 15.0012 47.042 15.0012H12.8953" stroke="#111111" stroke-width="10" stroke-linecap="round" stroke-linejoin="round"/>
<path d="M11.6686 55.8346C13.9698 55.8346 15.8353 53.9691 15.8353 51.6679C15.8353 49.3667 13.9698 47.5012 11.6686 47.5012C9.36743 47.5012 7.50195 49.3667 7.50195 51.6679C7.50195 53.9691 9.36743 55.8346 11.6686 55.8346Z" fill="#111111"/>
<path d="M46.6686 55.8346C48.9698 55.8346 50.8353 53.9691 50.8353 51.6679C50.8353 49.3667 48.9698 47.5012 46.6686 47.5012C44.3674 47.5012 42.502 49.3667 42.502 51.6679C42.502 53.9691 44.3674 55.8346 46.6686 55.8346Z" fill="#111111"/>
</svg>
